X: 1
T:Holly Bush, The
M:6/8
L:1/8
R:jig
Z:
K:G
BAG G2D|~G3 ABc|BAG edc|B/c/d B cBA|
!BAG GDG|GDG ABc|BAG ed^c|def g2d:|
!gdd gdd|gdd dcB|Acc Acc|Acc cBA|
!~B3 cdc|BAG Fdc|BAG edB|def g3:|
